X:404
T:Golden Slippers
C:James A. Bland, 1879
S:Colin Hume's website,  colinhume.com  - chords can also be printed below the stave.
Q:1/2=120
M:2/2
L:1/4
R:Reel
K:D
P:A
|: d/e/ | "D"ff fd/e/ | ff fd/e/ | ff gf | "A7"fe ec/d/ |
"A7"ee ec/d/ | ee ec/d/ | eg fe |1 "D"ed d :|2 "D"edd2 |
P:B
|: "D"A3d | fe d<A | "G"B3e | "Em"gf e<B | "A"c>c cd |1 "A"e>eec |
"D"d3/c/ de | f2 z2 :|[2"A"e>e eg | "D"f>g "A7"fe | "D"d3 |]

